symbolic/legacy/system-software-update-symbolic.svg

<?xml version="1.0" encoding="UTF-8" standalone="no"?>
<svg
   height="16px"
   viewBox="0 0 16 16"
   width="16px"
   version="1.1"
   id="svg3"
   xmlns="http://www.w3.org/2000/svg"
   xmlns:svg="http://www.w3.org/2000/svg">
  <defs
     id="defs3" />
  <path
     id="path1"
     style="opacity:0.7;fill:#000000;stroke-width:1.14414"
     d="M 3.4589844,0 C 1.7992904,0 0.39523396,1.199355 0.0703125,2.7734375 v 0.00195 0.00195 C 0.04748441,2.8885651 0.02934922,3.0005705 0.01757813,3.1152344 v 0.00195 0.00195 0.00195 C 0.00605973,3.235187 0,3.3518344 0,3.46875 c -1.4987071e-6,0.00132 0,0.00259 0,0.00391 V 4.5566406 12.53125 C 0,14.433348 1.5621913,16 3.4589844,16 H 9.1445312 V 13.708984 H 3.4589844 c -0.6694566,0 -1.1738282,-0.506406 -1.1738282,-1.177734 V 6.5976562 C 2.6538054,6.7718338 3.0496838,6.8828125 3.4589844,6.8828125 H 6.859375 V 7.5429687 L 9.1445312,8.6757812 V 6.8828125 H 10.199219 L 11.205078,5.7324219 H 9.1445312 V 2.296875 h 3.3964848 c 0.543933,0 0.979076,0.3330751 1.123046,0.8183594 0.01107,0.03733 0.0198,0.076196 0.02734,0.1152344 0.01486,0.07684 0.02319,0.1557749 0.02344,0.2382812 v 1.0878906 c 0,0.5628795 -0.354116,1.0094042 -0.863282,1.1386719 l 0.789063,0.9003906 c 0.02496,-0.012185 0.04941,-0.02433 0.07422,-0.037109 V 6.6816406 L 16,9.2929688 V 4.5566406 3.46875 C 15.99973,3.231046 15.976347,2.9982215 15.929688,2.7734375 15.604764,1.199355 14.200709,0 12.541016,0 H 9.1445312 6.859375 Z m 0,2.296875 H 6.859375 V 5.7324219 H 3.4589844 c -0.6694566,0 -1.1738282,-0.5044521 -1.1738282,-1.1757813 V 3.46875 c 1.27e-4,-0.042607 0.00175,-0.083822 0.00586,-0.125 0.00367,-0.038628 0.010558,-0.076048 0.017578,-0.1132812 0.00755,-0.039039 0.016269,-0.077905 0.027344,-0.1152344 C 2.4799098,2.6299501 2.9150509,2.296875 3.4589844,2.296875 Z m 11.4863276,8.998047 v 3.720703 C 15.59414,14.383489 16,13.50048 16,12.53125 v -1.236328 z" />
  <path
     id="path4"
     style="color:#000000;fill:#000000;fill-opacity:1;stroke-width:0.279979;stroke-miterlimit:4.1"
     d="m 9.9456745,15.987516 v -5.492427 h -1.84448 l 3.9443335,-4.507573 3.944331,4.507573 h -1.84448 v 5.492427 z" />
</svg>

<?xml version="1.0" encoding="UTF-8" standalone="no"?>
<svg
   height="16px"
   viewBox="0 0 16 16"
   width="16px"
   version="1.1"
   id="svg3"
   xmlns="http://www.w3.org/2000/svg"
   xmlns:svg="http://www.w3.org/2000/svg">
  <defs
     id="defs3" />
  <path
     id="path1"
     style="fill:#000000;stroke-width:1.14414;opacity:0.7"
     d="M 3.4589844 0 C 1.7992904 0 0.39523396 1.199355 0.0703125 2.7734375 L 0.0703125 2.7753906 L 0.0703125 2.7773438 C 0.047484412 2.8885651 0.029349223 3.0005705 0.017578125 3.1152344 L 0.017578125 3.1171875 L 0.017578125 3.1191406 L 0.017578125 3.1210938 C 0.0060597328 3.235187 -7.1701904e-17 3.3518344 0 3.46875 C -1.4987071e-06 3.4700673 0 3.4713386 0 3.4726562 L 0 4.5566406 L 0 12.53125 C 0 14.433348 1.5621913 16 3.4589844 16 L 9.1445312 16 L 9.1445312 13.708984 L 3.4589844 13.708984 C 2.7895278 13.708984 2.2851562 13.202578 2.2851562 12.53125 L 2.2851562 6.5976562 C 2.6538054 6.7718338 3.0496838 6.8828125 3.4589844 6.8828125 L 6.859375 6.8828125 L 6.859375 7.8027344 L 9.1445312 8.9355469 L 9.1445312 6.8828125 L 10.199219 6.8828125 L 11.205078 5.7324219 L 9.1445312 5.7324219 L 9.1445312 2.296875 L 12.541016 2.296875 C 13.084949 2.296875 13.520092 2.6299501 13.664062 3.1152344 C 13.675137 3.1525639 13.683857 3.1914302 13.691406 3.2304688 C 13.706265 3.3073092 13.714598 3.3862437 13.714844 3.46875 L 13.714844 4.5566406 C 13.714844 5.1195201 13.360728 5.5660448 12.851562 5.6953125 L 13.640625 6.5957031 C 13.665585 6.5835182 13.690036 6.5713728 13.714844 6.5585938 L 13.714844 6.6816406 L 16 9.2929688 L 16 4.5566406 L 16 3.46875 C 15.99973 3.231046 15.976347 2.9982215 15.929688 2.7734375 C 15.604764 1.199355 14.200709 0 12.541016 0 L 9.1445312 0 L 6.859375 0 L 3.4589844 0 z M 3.4589844 2.296875 L 6.859375 2.296875 L 6.859375 5.7324219 L 3.4589844 5.7324219 C 2.7895278 5.7324219 2.2851562 5.2279698 2.2851562 4.5566406 L 2.2851562 3.46875 C 2.2852832 3.4261431 2.2869105 3.3849276 2.2910156 3.34375 C 2.2946872 3.305122 2.3015737 3.2677025 2.3085938 3.2304688 C 2.3161425 3.1914301 2.3248627 3.1525639 2.3359375 3.1152344 C 2.4799098 2.6299501 2.9150509 2.296875 3.4589844 2.296875 z M 14.945312 11.294922 L 14.945312 15.015625 C 15.59414 14.383489 16 13.50048 16 12.53125 L 16 11.294922 L 14.945312 11.294922 z " />
  <path
     id="path4"
     style="color:#000000;fill:#000000;fill-opacity:1;stroke-width:0.279979;stroke-miterlimit:4.1"
     d="m 9.9456745,15.987516 v -5.492427 h -1.84448 l 3.9443335,-4.507573 3.944331,4.507573 h -1.84448 v 5.492427 z" />
</svg>
